assets/Nauseated face/Flat/nauseated_face_flat.svg

<svg width="32" height="32" viewBox="0 0 32 32" fill="none" xmlns="http://www.w3.org/2000/svg">
<path d="M15.9989 29.9978C25.3333 29.9978 29.9978 23.7303 29.9978 15.9989C29.9978 8.26751 25.3333 2 15.9989 2C6.66443 2 2 8.26751 2 15.9989C2 23.7303 6.66443 29.9978 15.9989 29.9978Z" fill="#00D26A"/>
<path d="M10.5 19C12.9853 19 15 16.9853 15 14.5C15 12.0147 12.9853 10 10.5 10C8.01472 10 6 12.0147 6 14.5C6 16.9853 8.01472 19 10.5 19Z" fill="white"/>
<path d="M21.5 19C23.9853 19 26 16.9853 26 14.5C26 12.0147 23.9853 10 21.5 10C19.0147 10 17 12.0147 17 14.5C17 16.9853 19.0147 19 21.5 19Z" fill="white"/>
<path d="M10.9879 5.60911C11.0482 5.33963 10.8786 5.07231 10.6091 5.01204C10.3396 4.95177 10.0723 5.12138 10.0121 5.39086C9.77442 6.45342 9.21065 7.09009 8.56489 7.47226C7.9037 7.86357 7.13305 7.99999 6.5 7.99999C6.22386 7.99999 6 8.22384 6 8.49999C6 8.77613 6.22386 8.99999 6.5 8.99999C7.25735 8.99999 8.21756 8.83982 9.07421 8.33284C9.94628 7.81672 10.6873 6.9534 10.9879 5.60911Z" fill="#402A32"/>
<path d="M21.0121 5.60911C20.9518 5.33963 21.1214 5.07231 21.3909 5.01204C21.6604 4.95177 21.9277 5.12138 21.9879 5.39086C22.2256 6.45342 22.7894 7.09009 23.4351 7.47226C24.0963 7.86357 24.8669 7.99999 25.5 7.99999C25.7761 7.99999 26 8.22384 26 8.49999C26 8.77613 25.7761 8.99999 25.5 8.99999C24.7427 8.99999 23.7824 8.83982 22.9258 8.33284C22.0537 7.81672 21.3127 6.9534 21.0121 5.60911Z" fill="#402A32"/>
<path d="M13.9032 21.0046C13.9351 21.0015 13.9674 21 14 21H18C18.0326 21 18.0649 21.0015 18.0968 21.0046C18.2979 20.0256 18.7985 19.2945 19.4652 18.798C20.292 18.1821 21.2736 18 22 18C22.5523 18 23 18.4477 23 19C23 19.5523 22.5523 20 22 20C21.5597 20 21.0413 20.1178 20.6598 20.402C20.3273 20.6496 20 21.0924 20 22C20 22.9076 20.3273 23.3503 20.6598 23.598C21.0413 23.8821 21.5597 24 22 24C22.5523 24 23 24.4477 23 25C23 25.5523 22.5523 26 22 26C21.2736 26 20.292 25.8178 19.4652 25.202C18.7985 24.7055 18.2979 23.9744 18.0968 22.9954C18.0649 22.9984 18.0326 23 18 23H14C13.9674 23 13.9351 22.9984 13.9032 22.9954C13.7021 23.9744 13.2015 24.7055 12.5348 25.202C11.708 25.8178 10.7264 26 10 26C9.44772 26 9 25.5523 9 25C9 24.4477 9.44772 24 10 24C10.4403 24 10.9587 23.8821 11.3402 23.598C11.6727 23.3503 12 22.9076 12 22C12 21.0924 11.6727 20.6496 11.3402 20.402C10.9587 20.1178 10.4403 20 10 20C9.44772 20 9 19.5523 9 19C9 18.4477 9.44772 18 10 18C10.7264 18 11.708 18.1821 12.5348 18.798C13.2015 19.2945 13.7021 20.0256 13.9032 21.0046Z" fill="#402A32"/>
<path d="M14 15C14 16.1046 13.1046 17 12 17C10.8954 17 10 16.1046 10 15C10 13.8954 10.8954 13 12 13C13.1046 13 14 13.8954 14 15Z" fill="#402A32"/>
<path d="M22 15C22 16.1046 21.1046 17 20 17C18.8954 17 18 16.1046 18 15C18 13.8954 18.8954 13 20 13C21.1046 13 22 13.8954 22 15Z" fill="#402A32"/>
</svg>

<svg xmlns="http://www.w3.org/2000/svg" width="32" height="32" fill="none"><path fill="#00D26A" d="M15.999 29.998c9.334 0 13.999-6.268 13.999-14 0-7.73-4.665-13.998-14-13.998C6.665 2 2 8.268 2 15.999c0 7.731 4.664 13.999 13.999 13.999Z"/><path fill="#fff" d="M10.5 19a4.5 4.5 0 1 0 0-9 4.5 4.5 0 0 0 0 9ZM21.5 19a4.5 4.5 0 1 0 0-9 4.5 4.5 0 0 0 0 9Z"/><path fill="#402A32" d="M10.988 5.61a.5.5 0 1 0-.976-.22c-.238 1.063-.801 1.7-1.447 2.082C7.904 7.864 7.133 8 6.5 8a.5.5 0 1 0 0 1c.757 0 1.718-.16 2.574-.667.872-.516 1.613-1.38 1.914-2.724ZM21.012 5.61a.5.5 0 1 1 .976-.22c.238 1.063.801 1.7 1.447 2.082.661.392 1.432.528 2.065.528a.5.5 0 0 1 0 1c-.757 0-1.718-.16-2.574-.667-.872-.516-1.613-1.38-1.914-2.724ZM13.903 21.005A1 1 0 0 1 14 21h4a1 1 0 0 1 .097.005c.2-.98.701-1.71 1.368-2.207C20.292 18.182 21.274 18 22 18a1 1 0 1 1 0 2c-.44 0-.959.118-1.34.402-.333.248-.66.69-.66 1.598 0 .908.327 1.35.66 1.598.381.284.9.402 1.34.402a1 1 0 1 1 0 2c-.726 0-1.708-.182-2.535-.798-.666-.497-1.167-1.228-1.368-2.207A1.034 1.034 0 0 1 18 23h-4c-.033 0-.065-.002-.097-.005-.2.98-.702 1.71-1.368 2.207-.827.616-1.809.798-2.535.798a1 1 0 1 1 0-2c.44 0 .959-.118 1.34-.402.333-.248.66-.69.66-1.598 0-.908-.327-1.35-.66-1.598-.381-.284-.9-.402-1.34-.402a1 1 0 1 1 0-2c.726 0 1.708.182 2.535.798.666.497 1.167 1.228 1.368 2.207ZM14 15a2 2 0 1 1-4 0 2 2 0 0 1 4 0ZM22 15a2 2 0 1 1-4 0 2 2 0 0 1 4 0Z"/></svg>
